X:337
T: Vom edlen Jagen (4-36), S. 49
N: P0597
O: Lothringen
S: PINCK, Louis: Verklingende Weisen Bd 4, Kassel 1939]
R: Jagdlied]
M: 3/4
L: 1/8
K: G
D2 | D3GG2 | G4B2 | G2B2B2 | B4
BB | d4d2 | d2c2c2 | B3AB2 | A4
D2 | D3GG2 | G4B2 | G2B2B2 | B4B2 |
d4d2 | d2c2c2 | B3AB2 | A4
d2 | A4c2 | d4e2 | d4A2 |
G3AB2 | B3AG2 | A6 |
G3AB2 | A2B2d2 | B3AB2 | A4A2 |
G2A2B2 | A2B2d2 | B3AB2 | A4A2 |
B4B2 | c2B2c2 | d3cBc |
B2d2B2 | B2G2A2 | G4

@@@ Tune index: 7887
